build/img/svg/pdf.svg

<svg width="40" height="44" viewBox="0 0 40 44" fill="none" xmlns="http://www.w3.org/2000/svg">
<path d="M7 21V3C7 1.896 7.896 1 9 1H31L39 9V41C39 42.104 38.104 43 37 43H9C7.896 43 7 42.104 7 41V36" fill="#F5F5F7"/>
<path d="M7 21V3C7 1.896 7.896 1 9 1H31L39 9V41C39 42.104 38.104 43 37 43H9C7.896 43 7 42.104 7 41V36" stroke="#D9D9DE" stroke-width="2" stroke-miterlimit="10"/>
<path d="M36 10H30V4" stroke="#D9D9DE" stroke-width="2" stroke-miterlimit="10"/>
<path d="M27 36H2C0.896 36 0 35.104 0 34V23C0 21.896 0.896 21 2 21H27C28.104 21 29 21.896 29 23V34C29 35.104 28.104 36 27 36Z" fill="#0061D9"/>
<path d="M5.64578 25.64H7.12178V26.576C7.28178 26.288 7.53378 26.036 7.87778 25.82C8.22178 25.604 8.65778 25.496 9.18578 25.496C10.0338 25.496 10.6938 25.76 11.1658 26.288C11.6458 26.808 11.8858 27.592 11.8858 28.64V28.88C11.8858 29.976 11.6418 30.796 11.1538 31.34C10.6738 31.876 10.0178 32.144 9.18578 32.144C8.75378 32.144 8.36978 32.052 8.03378 31.868C7.70578 31.676 7.43778 31.428 7.22978 31.124V34.4H5.64578V25.64ZM8.81378 30.8C9.22978 30.8 9.57778 30.644 9.85778 30.332C10.1378 30.012 10.2778 29.528 10.2778 28.88V28.64C10.2778 28.04 10.1418 27.592 9.86978 27.296C9.59778 26.992 9.24578 26.84 8.81378 26.84C8.35778 26.84 7.97778 26.972 7.67378 27.236C7.37778 27.492 7.22978 27.88 7.22978 28.4V29.12C7.22978 29.688 7.37378 30.112 7.66178 30.392C7.95778 30.664 8.34178 30.8 8.81378 30.8ZM15.4286 32.144C14.5966 32.144 13.9366 31.876 13.4486 31.34C12.9686 30.796 12.7286 29.976 12.7286 28.88V28.64C12.7286 27.616 12.9726 26.836 13.4606 26.3C13.9486 25.764 14.6046 25.496 15.4286 25.496C15.8606 25.496 16.2406 25.592 16.5686 25.784C16.9046 25.968 17.1766 26.212 17.3846 26.516V23.6H18.9686V32H17.4926V31.064C17.3326 31.352 17.0806 31.604 16.7366 31.82C16.3926 32.036 15.9566 32.144 15.4286 32.144ZM15.8006 30.8C16.2726 30.8 16.6526 30.664 16.9406 30.392C17.2366 30.112 17.3846 29.688 17.3846 29.12V28.4C17.3846 27.88 17.2326 27.492 16.9286 27.236C16.6326 26.972 16.2566 26.84 15.8006 26.84C15.3686 26.84 15.0166 26.992 14.7446 27.296C14.4726 27.592 14.3366 28.04 14.3366 28.64V28.88C14.3366 29.528 14.4766 30.012 14.7566 30.332C15.0366 30.644 15.3846 30.8 15.8006 30.8ZM20.7714 26.96H19.9914V25.64H20.7714V25.4C20.7714 24.792 20.9394 24.328 21.2754 24.008C21.6194 23.688 22.2114 23.528 23.0514 23.528C23.1714 23.528 23.3194 23.532 23.4954 23.54C23.6794 23.54 23.8314 23.548 23.9514 23.564V24.908C23.8314 24.892 23.6994 24.884 23.5554 24.884C23.4194 24.876 23.2914 24.872 23.1714 24.872C22.8674 24.872 22.6554 24.924 22.5354 25.028C22.4154 25.132 22.3554 25.296 22.3554 25.52V25.64H23.8314V26.96H22.3554V32H20.7714V26.96Z" fill="white"/>
</svg>

<svg width="40" height="44" fill="none" xmlns="http://www.w3.org/2000/svg"><path d="M7 21V3a2 2 0 012-2h22l8 8v32a2 2 0 01-2 2H9a2 2 0 01-2-2v-5" fill="#F5F5F7"/><path d="M7 21V3a2 2 0 012-2h22l8 8v32a2 2 0 01-2 2H9a2 2 0 01-2-2v-5" stroke="#D9D9DE" stroke-width="2" stroke-miterlimit="10"/><path d="M36 10h-6V4" stroke="#D9D9DE" stroke-width="2" stroke-miterlimit="10"/><path d="M27 36H2a2 2 0 01-2-2V23a2 2 0 012-2h25a2 2 0 012 2v11a2 2 0 01-2 2z" fill="#0061D9"/><path d="M5.646 25.64h1.476v.936c.16-.288.412-.54.756-.756.344-.216.78-.324 1.308-.324.848 0 1.508.264 1.98.792.48.52.72 1.304.72 2.352v.24c0 1.096-.244 1.916-.732 2.46-.48.536-1.136.804-1.968.804a2.36 2.36 0 01-1.152-.276 2.474 2.474 0 01-.804-.744V34.4H5.646v-8.76zm3.168 5.16c.416 0 .764-.156 1.044-.468.28-.32.42-.804.42-1.452v-.24c0-.6-.136-1.048-.408-1.344-.272-.304-.624-.456-1.056-.456-.456 0-.836.132-1.14.396-.296.256-.444.644-.444 1.164v.72c0 .568.144.992.432 1.272.296.272.68.408 1.152.408zm6.615 1.344c-.832 0-1.492-.268-1.98-.804-.48-.544-.72-1.364-.72-2.46v-.24c0-1.024.244-1.804.732-2.34.488-.536 1.144-.804 1.968-.804.432 0 .812.096 1.14.288.336.184.608.428.816.732V23.6h1.584V32h-1.476v-.936c-.16.288-.412.54-.756.756-.344.216-.78.324-1.308.324zM15.8 30.8c.472 0 .852-.136 1.14-.408.296-.28.444-.704.444-1.272v-.72c0-.52-.152-.908-.456-1.164-.296-.264-.672-.396-1.128-.396-.432 0-.784.152-1.056.456-.272.296-.408.744-.408 1.344v.24c0 .648.14 1.132.42 1.452.28.312.628.468 1.044.468zm4.97-3.84h-.78v-1.32h.78v-.24c0-.608.168-1.072.504-1.392.344-.32.936-.48 1.776-.48.12 0 .268.004.444.012.184 0 .336.008.456.024v1.344a3.009 3.009 0 00-.396-.024 6.558 6.558 0 00-.384-.012c-.304 0-.516.052-.636.156-.12.104-.18.268-.18.492v.12h1.476v1.32h-1.476V32H20.77v-5.04z" fill="#fff"/></svg>
